icons/24x24_home_filled.svg

<svg xmlns="http://www.w3.org/2000/svg" width="24" height="24" viewBox="0 0 24 24">
  <path d="M20,13.4188645 L20,21 L4,21 L4,13.4095798 L3.70133899,13.7077216 C3.31047511,14.0979061 2.67731037,14.0973552 2.28712596,13.7064914 C1.89694155,13.3156275 1.89749236,12.6824628 2.28835623,12.2922783 L11.3040287,3.29227835 C11.694893,2.90209352 12.3280586,2.90264481 12.7182428,3.2935097 L21.7025703,12.2935097 C22.0927541,12.6843742 22.0922024,13.3175389 21.7013379,13.7077227 C21.3104734,14.0979065 20.6773087,14.0973548 20.2871249,13.7064903 L20,13.4188645 Z M10,16 L10,19 L14,19 L14,16 L10,16 Z"/>
</svg>

<svg width="24" height="24" fill="none" xmlns="http://www.w3.org/2000/svg"><path d="M20 13.419V21H4v-7.59l-.299.298a1 1 0 1 1-1.413-1.416l9.016-9a1 1 0 0 1 1.414.002l8.985 9a1 1 0 0 1-1.416 1.412L20 13.42ZM10 16v3h4v-3h-4Z" fill="#000"/></svg>
